img/dots2.svg

<svg width="132" height="115" viewBox="0 0 132 115" fill="none" xmlns="http://www.w3.org/2000/svg">
<mask id="mask0" mask-type="alpha" maskUnits="userSpaceOnUse" x="90" y="0" width="12" height="11">
<path d="M96.0716 10.425C98.9592 10.425 101.3 8.09121 101.3 5.21245C101.3 2.33368 98.9592 0 96.0716 0C93.184 0 90.8432 2.33368 90.8432 5.21245C90.8432 8.09121 93.184 10.425 96.0716 10.425Z" fill="url(#paint0_linear)"/>
</mask>
<g mask="url(#mask0)">
<path d="M96.0716 10.425C98.9592 10.425 101.3 8.09121 101.3 5.21245C101.3 2.33368 98.9592 0 96.0716 0C93.184 0 90.8432 2.33368 90.8432 5.21245C90.8432 8.09121 93.184 10.425 96.0716 10.425Z" fill="url(#paint1_linear)"/>
</g>
<mask id="mask1" mask-type="alpha" maskUnits="userSpaceOnUse" x="121" y="0" width="11" height="11">
<path d="M126.353 10.425C129.24 10.425 131.581 8.09121 131.581 5.21245C131.581 2.33368 129.24 0 126.353 0C123.465 0 121.124 2.33368 121.124 5.21245C121.124 8.09121 123.465 10.425 126.353 10.425Z" fill="url(#paint2_linear)"/>
</mask>
<g mask="url(#mask1)">
<path d="M126.353 10.425C129.24 10.425 131.581 8.09121 131.581 5.21245C131.581 2.33368 129.24 0 126.353 0C123.465 0 121.124 2.33368 121.124 5.21245C121.124 8.09121 123.465 10.425 126.353 10.425Z" fill="url(#paint3_linear)"/>
</g>
<mask id="mask2" mask-type="alpha" maskUnits="userSpaceOnUse" x="90" y="26" width="12" height="11">
<path d="M96.0716 36.5958C98.9592 36.5958 101.3 34.2621 101.3 31.3833C101.3 28.5046 98.9592 26.1709 96.0716 26.1709C93.184 26.1709 90.8432 28.5046 90.8432 31.3833C90.8432 34.2621 93.184 36.5958 96.0716 36.5958Z" fill="url(#paint4_linear)"/>
</mask>
<g mask="url(#mask2)">
<path d="M96.0716 36.5958C98.9592 36.5958 101.3 34.2621 101.3 31.3833C101.3 28.5046 98.9592 26.1709 96.0716 26.1709C93.184 26.1709 90.8432 28.5046 90.8432 31.3833C90.8432 34.2621 93.184 36.5958 96.0716 36.5958Z" fill="url(#paint5_linear)"/>
</g>
<mask id="mask3" mask-type="alpha" maskUnits="userSpaceOnUse" x="121" y="26" width="11" height="11">
<path d="M126.353 36.5958C129.24 36.5958 131.581 34.2621 131.581 31.3833C131.581 28.5046 129.24 26.1709 126.353 26.1709C123.465 26.1709 121.124 28.5046 121.124 31.3833C121.124 34.2621 123.465 36.5958 126.353 36.5958Z" fill="url(#paint6_linear)"/>
</mask>
<g mask="url(#mask3)">
<path d="M126.353 36.5958C129.24 36.5958 131.581 34.2621 131.581 31.3833C131.581 28.5046 129.24 26.1709 126.353 26.1709C123.465 26.1709 121.124 28.5046 121.124 31.3833C121.124 34.2621 123.465 36.5958 126.353 36.5958Z" fill="url(#paint7_linear)"/>
</g>
<mask id="mask4" mask-type="alpha" maskUnits="userSpaceOnUse" x="90" y="52" width="12" height="11">
<path d="M96.0716 62.7124C98.9592 62.7124 101.3 60.3787 101.3 57.5C101.3 54.6212 98.9592 52.2875 96.0716 52.2875C93.184 52.2875 90.8432 54.6212 90.8432 57.5C90.8432 60.3787 93.184 62.7124 96.0716 62.7124Z" fill="url(#paint8_linear)"/>
</mask>
<g mask="url(#mask4)">
<path d="M96.0716 62.7124C98.9592 62.7124 101.3 60.3787 101.3 57.5C101.3 54.6212 98.9592 52.2875 96.0716 52.2875C93.184 52.2875 90.8432 54.6212 90.8432 57.5C90.8432 60.3787 93.184 62.7124 96.0716 62.7124Z" fill="url(#paint9_linear)"/>
</g>
<mask id="mask5" mask-type="alpha" maskUnits="userSpaceOnUse" x="121" y="52" width="11" height="11">
<path d="M126.353 62.7124C129.24 62.7124 131.581 60.3787 131.581 57.5C131.581 54.6212 129.24 52.2875 126.353 52.2875C123.465 52.2875 121.124 54.6212 121.124 57.5C121.124 60.3787 123.465 62.7124 126.353 62.7124Z" fill="url(#paint10_linear)"/>
</mask>
<g mask="url(#mask5)">
<path d="M126.353 62.7124C129.24 62.7124 131.581 60.3787 131.581 57.5C131.581 54.6212 129.24 52.2875 126.353 52.2875C123.465 52.2875 121.124 54.6212 121.124 57.5C121.124 60.3787 123.465 62.7124 126.353 62.7124Z" fill="url(#paint11_linear)"/>
</g>
<mask id="mask6" mask-type="alpha" maskUnits="userSpaceOnUse" x="0" y="78" width="11" height="11">
<path d="M5.22838 88.8833C8.11594 88.8833 10.4568 86.5496 10.4568 83.6708C10.4568 80.7921 8.11594 78.4584 5.22838 78.4584C2.34082 78.4584 0 80.7921 0 83.6708C0 86.5496 2.34082 88.8833 5.22838 88.8833Z" fill="url(#paint12_linear)"/>
</mask>
<g mask="url(#mask6)">
<path d="M5.22838 88.8833C8.11594 88.8833 10.4568 86.5496 10.4568 83.6708C10.4568 80.7921 8.11594 78.4584 5.22838 78.4584C2.34082 78.4584 0 80.7921 0 83.6708C0 86.5496 2.34082 88.8833 5.22838 88.8833Z" fill="url(#paint13_linear)"/>
</g>
<mask id="mask7" mask-type="alpha" maskUnits="userSpaceOnUse" x="30" y="78" width="11" height="11">
<path d="M35.5095 88.8833C38.397 88.8833 40.7378 86.5496 40.7378 83.6708C40.7378 80.7921 38.397 78.4584 35.5095 78.4584C32.6219 78.4584 30.2811 80.7921 30.2811 83.6708C30.2811 86.5496 32.6219 88.8833 35.5095 88.8833Z" fill="url(#paint14_linear)"/>
</mask>
<g mask="url(#mask7)">
<path d="M35.5095 88.8833C38.397 88.8833 40.7378 86.5496 40.7378 83.6708C40.7378 80.7921 38.397 78.4584 35.5095 78.4584C32.6219 78.4584 30.2811 80.7921 30.2811 83.6708C30.2811 86.5496 32.6219 88.8833 35.5095 88.8833Z" fill="url(#paint15_linear)"/>
</g>
<mask id="mask8" mask-type="alpha" maskUnits="userSpaceOnUse" x="60" y="78" width="12" height="11">
<path d="M65.7905 88.8833C68.6781 88.8833 71.0189 86.5496 71.0189 83.6708C71.0189 80.7921 68.6781 78.4584 65.7905 78.4584C62.903 78.4584 60.5621 80.7921 60.5621 83.6708C60.5621 86.5496 62.903 88.8833 65.7905 88.8833Z" fill="url(#paint16_linear)"/>
</mask>
<g mask="url(#mask8)">
<path d="M65.7905 88.8833C68.6781 88.8833 71.0189 86.5496 71.0189 83.6708C71.0189 80.7921 68.6781 78.4584 65.7905 78.4584C62.903 78.4584 60.5621 80.7921 60.5621 83.6708C60.5621 86.5496 62.903 88.8833 65.7905 88.8833Z" fill="url(#paint17_linear)"/>
</g>
<mask id="mask9" mask-type="alpha" maskUnits="userSpaceOnUse" x="90" y="78" width="12" height="11">
<path d="M96.0716 88.8833C98.9592 88.8833 101.3 86.5496 101.3 83.6708C101.3 80.7921 98.9592 78.4584 96.0716 78.4584C93.184 78.4584 90.8432 80.7921 90.8432 83.6708C90.8432 86.5496 93.184 88.8833 96.0716 88.8833Z" fill="url(#paint18_linear)"/>
</mask>
<g mask="url(#mask9)">
<path d="M96.0716 88.8833C98.9592 88.8833 101.3 86.5496 101.3 83.6708C101.3 80.7921 98.9592 78.4584 96.0716 78.4584C93.184 78.4584 90.8432 80.7921 90.8432 83.6708C90.8432 86.5496 93.184 88.8833 96.0716 88.8833Z" fill="url(#paint19_linear)"/>
</g>
<mask id="mask10" mask-type="alpha" maskUnits="userSpaceOnUse" x="121" y="78" width="11" height="11">
<path d="M126.353 88.8833C129.24 88.8833 131.581 86.5496 131.581 83.6708C131.581 80.7921 129.24 78.4584 126.353 78.4584C123.465 78.4584 121.124 80.7921 121.124 83.6708C121.124 86.5496 123.465 88.8833 126.353 88.8833Z" fill="url(#paint20_linear)"/>
</mask>
<g mask="url(#mask10)">
<path d="M126.353 88.8833C129.24 88.8833 131.581 86.5496 131.581 83.6708C131.581 80.7921 129.24 78.4584 126.353 78.4584C123.465 78.4584 121.124 80.7921 121.124 83.6708C121.124 86.5496 123.465 88.8833 126.353 88.8833Z" fill="url(#paint21_linear)"/>
</g>
<mask id="mask11" mask-type="alpha" maskUnits="userSpaceOnUse" x="90" y="104" width="12" height="11">
<path d="M96.0716 115C98.9592 115 101.3 112.666 101.3 109.788C101.3 106.909 98.9592 104.575 96.0716 104.575C93.184 104.575 90.8432 106.909 90.8432 109.788C90.8432 112.666 93.184 115 96.0716 115Z" fill="url(#paint22_linear)"/>
</mask>
<g mask="url(#mask11)">
<path d="M96.0716 115C98.9592 115 101.3 112.666 101.3 109.788C101.3 106.909 98.9592 104.575 96.0716 104.575C93.184 104.575 90.8432 106.909 90.8432 109.788C90.8432 112.666 93.184 115 96.0716 115Z" fill="url(#paint23_linear)"/>
</g>
<mask id="mask12" mask-type="alpha" maskUnits="userSpaceOnUse" x="121" y="104" width="11" height="11">
<path d="M126.353 115C129.24 115 131.581 112.666 131.581 109.788C131.581 106.909 129.24 104.575 126.353 104.575C123.465 104.575 121.124 106.909 121.124 109.788C121.124 112.666 123.465 115 126.353 115Z" fill="url(#paint24_linear)"/>
</mask>
<g mask="url(#mask12)">
<path d="M126.353 115C129.24 115 131.581 112.666 131.581 109.788C131.581 106.909 129.24 104.575 126.353 104.575C123.465 104.575 121.124 106.909 121.124 109.788C121.124 112.666 123.465 115 126.353 115Z" fill="url(#paint25_linear)"/>
</g>
<defs>
<linearGradient id="paint0_linear" x1="133.609" y1="100.259" x2="62.2075" y2="-81.5444" gradientUnits="userSpaceOnUse">
<stop/>
<stop offset="1" stop-color="white"/>
</linearGradient>
<linearGradient id="paint1_linear" x1="133.609" y1="100.259" x2="62.2075" y2="-81.5444" gradientUnits="userSpaceOnUse">
<stop stop-color="#97C3F9"/>
<stop offset="1" stop-color="#93C1F9"/>
</linearGradient>
<linearGradient id="paint2_linear" x1="159.813" y1="89.9679" x2="88.4119" y2="-91.8359" gradientUnits="userSpaceOnUse">
<stop/>
<stop offset="1" stop-color="white"/>
</linearGradient>
<linearGradient id="paint3_linear" x1="159.813" y1="89.9679" x2="88.4119" y2="-91.8359" gradientUnits="userSpaceOnUse">
<stop stop-color="#97C3F9"/>
<stop offset="1" stop-color="#93C1F9"/>
</linearGradient>
<linearGradient id="paint4_linear" x1="124.667" y1="103.771" x2="53.2663" y2="-78.0318" gradientUnits="userSpaceOnUse">
<stop/>
<stop offset="1" stop-color="white"/>
</linearGradient>
<linearGradient id="paint5_linear" x1="124.667" y1="103.771" x2="53.2663" y2="-78.0318" gradientUnits="userSpaceOnUse">
<stop stop-color="#97C3F9"/>
<stop offset="1" stop-color="#93C1F9"/>
</linearGradient>
<linearGradient id="paint6_linear" x1="150.871" y1="93.4793" x2="79.4707" y2="-88.3232" gradientUnits="userSpaceOnUse">
<stop/>
<stop offset="1" stop-color="white"/>
</linearGradient>
<linearGradient id="paint7_linear" x1="150.871" y1="93.4793" x2="79.4707" y2="-88.3232" gradientUnits="userSpaceOnUse">
<stop stop-color="#97C3F9"/>
<stop offset="1" stop-color="#93C1F9"/>
</linearGradient>
<linearGradient id="paint8_linear" x1="115.724" y1="107.283" x2="44.3227" y2="-74.5205" gradientUnits="userSpaceOnUse">
<stop/>
<stop offset="1" stop-color="white"/>
</linearGradient>
<linearGradient id="paint9_linear" x1="115.724" y1="107.283" x2="44.3227" y2="-74.5205" gradientUnits="userSpaceOnUse">
<stop stop-color="#97C3F9"/>
<stop offset="1" stop-color="#93C1F9"/>
</linearGradient>
<linearGradient id="paint10_linear" x1="141.929" y1="96.9919" x2="70.5271" y2="-84.812" gradientUnits="userSpaceOnUse">
<stop/>
<stop offset="1" stop-color="white"/>
</linearGradient>
<linearGradient id="paint11_linear" x1="141.929" y1="96.9919" x2="70.5271" y2="-84.812" gradientUnits="userSpaceOnUse">
<stop stop-color="#97C3F9"/>
<stop offset="1" stop-color="#93C1F9"/>
</linearGradient>
<linearGradient id="paint12_linear" x1="28.169" y1="141.67" x2="-43.2327" y2="-40.1339" gradientUnits="userSpaceOnUse">
<stop/>
<stop offset="1" stop-color="white"/>
</linearGradient>
<linearGradient id="paint13_linear" x1="28.169" y1="141.67" x2="-43.2327" y2="-40.1339" gradientUnits="userSpaceOnUse">
<stop stop-color="#97C3F9"/>
<stop offset="1" stop-color="#93C1F9"/>
</linearGradient>
<linearGradient id="paint14_linear" x1="54.3734" y1="131.378" x2="-17.0283" y2="-50.4254" gradientUnits="userSpaceOnUse">
<stop/>
<stop offset="1" stop-color="white"/>
</linearGradient>
<linearGradient id="paint15_linear" x1="54.3734" y1="131.378" x2="-17.0283" y2="-50.4254" gradientUnits="userSpaceOnUse">
<stop stop-color="#97C3F9"/>
<stop offset="1" stop-color="#93C1F9"/>
</linearGradient>
<linearGradient id="paint16_linear" x1="80.5777" y1="121.087" x2="9.17609" y2="-60.7168" gradientUnits="userSpaceOnUse">
<stop/>
<stop offset="1" stop-color="white"/>
</linearGradient>
<linearGradient id="paint17_linear" x1="80.5777" y1="121.087" x2="9.17609" y2="-60.7168" gradientUnits="userSpaceOnUse">
<stop stop-color="#97C3F9"/>
<stop offset="1" stop-color="#93C1F9"/>
</linearGradient>
<linearGradient id="paint18_linear" x1="106.782" y1="110.795" x2="35.3804" y2="-71.0085" gradientUnits="userSpaceOnUse">
<stop/>
<stop offset="1" stop-color="white"/>
</linearGradient>
<linearGradient id="paint19_linear" x1="106.782" y1="110.795" x2="35.3804" y2="-71.0085" gradientUnits="userSpaceOnUse">
<stop stop-color="#97C3F9"/>
<stop offset="1" stop-color="#93C1F9"/>
</linearGradient>
<linearGradient id="paint20_linear" x1="132.986" y1="100.504" x2="61.5847" y2="-81.3" gradientUnits="userSpaceOnUse">
<stop/>
<stop offset="1" stop-color="white"/>
</linearGradient>
<linearGradient id="paint21_linear" x1="132.986" y1="100.504" x2="61.5847" y2="-81.3" gradientUnits="userSpaceOnUse">
<stop stop-color="#97C3F9"/>
<stop offset="1" stop-color="#93C1F9"/>
</linearGradient>
<linearGradient id="paint22_linear" x1="97.8397" y1="114.307" x2="26.438" y2="-67.4963" gradientUnits="userSpaceOnUse">
<stop/>
<stop offset="1" stop-color="white"/>
</linearGradient>
<linearGradient id="paint23_linear" x1="97.8397" y1="114.307" x2="26.438" y2="-67.4963" gradientUnits="userSpaceOnUse">
<stop stop-color="#97C3F9"/>
<stop offset="1" stop-color="#93C1F9"/>
</linearGradient>
<linearGradient id="paint24_linear" x1="124.044" y1="104.016" x2="52.6424" y2="-77.7878" gradientUnits="userSpaceOnUse">
<stop/>
<stop offset="1" stop-color="white"/>
</linearGradient>
<linearGradient id="paint25_linear" x1="124.044" y1="104.016" x2="52.6424" y2="-77.7878" gradientUnits="userSpaceOnUse">
<stop stop-color="#97C3F9"/>
<stop offset="1" stop-color="#93C1F9"/>
</linearGradient>
</defs>
</svg>

<svg width="132" height="115" fill="none" xmlns="http://www.w3.org/2000/svg"><mask id="a" maskUnits="userSpaceOnUse" x="90" y="0" width="12" height="11"><path d="M96.072 10.425c2.887 0 5.228-2.334 5.228-5.213C101.3 2.334 98.96 0 96.072 0s-5.229 2.334-5.229 5.212c0 2.88 2.341 5.213 5.229 5.213z" fill="url(#paint0_linear)"/></mask><g mask="url(#a)"><path d="M96.072 10.425c2.887 0 5.228-2.334 5.228-5.213C101.3 2.334 98.96 0 96.072 0s-5.229 2.334-5.229 5.212c0 2.88 2.341 5.213 5.229 5.213z" fill="url(#paint1_linear)"/></g><mask id="b" maskUnits="userSpaceOnUse" x="121" y="0" width="11" height="11"><path d="M126.353 10.425c2.887 0 5.228-2.334 5.228-5.213 0-2.878-2.341-5.212-5.228-5.212-2.888 0-5.229 2.334-5.229 5.212 0 2.88 2.341 5.213 5.229 5.213z" fill="url(#paint2_linear)"/></mask><g mask="url(#b)"><path d="M126.353 10.425c2.887 0 5.228-2.334 5.228-5.213 0-2.878-2.341-5.212-5.228-5.212-2.888 0-5.229 2.334-5.229 5.212 0 2.88 2.341 5.213 5.229 5.213z" fill="url(#paint3_linear)"/></g><mask id="c" maskUnits="userSpaceOnUse" x="90" y="26" width="12" height="11"><path d="M96.072 36.596c2.887 0 5.228-2.334 5.228-5.213 0-2.878-2.34-5.212-5.228-5.212s-5.229 2.334-5.229 5.212c0 2.88 2.341 5.213 5.229 5.213z" fill="url(#paint4_linear)"/></mask><g mask="url(#c)"><path d="M96.072 36.596c2.887 0 5.228-2.334 5.228-5.213 0-2.878-2.34-5.212-5.228-5.212s-5.229 2.334-5.229 5.212c0 2.88 2.341 5.213 5.229 5.213z" fill="url(#paint5_linear)"/></g><mask id="d" maskUnits="userSpaceOnUse" x="121" y="26" width="11" height="11"><path d="M126.353 36.596c2.887 0 5.228-2.334 5.228-5.213 0-2.878-2.341-5.212-5.228-5.212-2.888 0-5.229 2.334-5.229 5.212 0 2.88 2.341 5.213 5.229 5.213z" fill="url(#paint6_linear)"/></mask><g mask="url(#d)"><path d="M126.353 36.596c2.887 0 5.228-2.334 5.228-5.213 0-2.878-2.341-5.212-5.228-5.212-2.888 0-5.229 2.334-5.229 5.212 0 2.88 2.341 5.213 5.229 5.213z" fill="url(#paint7_linear)"/></g><mask id="e" maskUnits="userSpaceOnUse" x="90" y="52" width="12" height="11"><path d="M96.072 62.712c2.887 0 5.228-2.333 5.228-5.212 0-2.879-2.34-5.212-5.228-5.212s-5.229 2.333-5.229 5.212c0 2.879 2.341 5.212 5.229 5.212z" fill="url(#paint8_linear)"/></mask><g mask="url(#e)"><path d="M96.072 62.712c2.887 0 5.228-2.333 5.228-5.212 0-2.879-2.34-5.212-5.228-5.212s-5.229 2.333-5.229 5.212c0 2.879 2.341 5.212 5.229 5.212z" fill="url(#paint9_linear)"/></g><mask id="f" maskUnits="userSpaceOnUse" x="121" y="52" width="11" height="11"><path d="M126.353 62.712c2.887 0 5.228-2.333 5.228-5.212 0-2.879-2.341-5.212-5.228-5.212-2.888 0-5.229 2.333-5.229 5.212 0 2.879 2.341 5.212 5.229 5.212z" fill="url(#paint10_linear)"/></mask><g mask="url(#f)"><path d="M126.353 62.712c2.887 0 5.228-2.333 5.228-5.212 0-2.879-2.341-5.212-5.228-5.212-2.888 0-5.229 2.333-5.229 5.212 0 2.879 2.341 5.212 5.229 5.212z" fill="url(#paint11_linear)"/></g><mask id="g" maskUnits="userSpaceOnUse" x="0" y="78" width="11" height="11"><path d="M5.228 88.883c2.888 0 5.229-2.333 5.229-5.212 0-2.879-2.341-5.213-5.229-5.213C2.341 78.458 0 80.792 0 83.671s2.34 5.212 5.228 5.212z" fill="url(#paint12_linear)"/></mask><g mask="url(#g)"><path d="M5.228 88.883c2.888 0 5.229-2.333 5.229-5.212 0-2.879-2.341-5.213-5.229-5.213C2.341 78.458 0 80.792 0 83.671s2.34 5.212 5.228 5.212z" fill="url(#paint13_linear)"/></g><mask id="h" maskUnits="userSpaceOnUse" x="30" y="78" width="11" height="11"><path d="M35.51 88.883c2.887 0 5.228-2.333 5.228-5.212 0-2.879-2.341-5.213-5.228-5.213-2.888 0-5.229 2.334-5.229 5.213s2.34 5.212 5.229 5.212z" fill="url(#paint14_linear)"/></mask><g mask="url(#h)"><path d="M35.51 88.883c2.887 0 5.228-2.333 5.228-5.212 0-2.879-2.341-5.213-5.228-5.213-2.888 0-5.229 2.334-5.229 5.213s2.34 5.212 5.229 5.212z" fill="url(#paint15_linear)"/></g><mask id="i" maskUnits="userSpaceOnUse" x="60" y="78" width="12" height="11"><path d="M65.79 88.883c2.888 0 5.229-2.333 5.229-5.212 0-2.879-2.34-5.213-5.229-5.213-2.887 0-5.228 2.334-5.228 5.213s2.341 5.212 5.228 5.212z" fill="url(#paint16_linear)"/></mask><g mask="url(#i)"><path d="M65.79 88.883c2.888 0 5.229-2.333 5.229-5.212 0-2.879-2.34-5.213-5.229-5.213-2.887 0-5.228 2.334-5.228 5.213s2.341 5.212 5.228 5.212z" fill="url(#paint17_linear)"/></g><mask id="j" maskUnits="userSpaceOnUse" x="90" y="78" width="12" height="11"><path d="M96.072 88.883c2.887 0 5.228-2.333 5.228-5.212 0-2.879-2.34-5.213-5.228-5.213s-5.229 2.334-5.229 5.213 2.341 5.212 5.229 5.212z" fill="url(#paint18_linear)"/></mask><g mask="url(#j)"><path d="M96.072 88.883c2.887 0 5.228-2.333 5.228-5.212 0-2.879-2.34-5.213-5.228-5.213s-5.229 2.334-5.229 5.213 2.341 5.212 5.229 5.212z" fill="url(#paint19_linear)"/></g><mask id="k" maskUnits="userSpaceOnUse" x="121" y="78" width="11" height="11"><path d="M126.353 88.883c2.887 0 5.228-2.333 5.228-5.212 0-2.879-2.341-5.213-5.228-5.213-2.888 0-5.229 2.334-5.229 5.213s2.341 5.212 5.229 5.212z" fill="url(#paint20_linear)"/></mask><g mask="url(#k)"><path d="M126.353 88.883c2.887 0 5.228-2.333 5.228-5.212 0-2.879-2.341-5.213-5.228-5.213-2.888 0-5.229 2.334-5.229 5.213s2.341 5.212 5.229 5.212z" fill="url(#paint21_linear)"/></g><mask id="l" maskUnits="userSpaceOnUse" x="90" y="104" width="12" height="11"><path d="M96.072 115c2.887 0 5.228-2.334 5.228-5.212 0-2.879-2.34-5.213-5.228-5.213s-5.229 2.334-5.229 5.213c0 2.878 2.341 5.212 5.229 5.212z" fill="url(#paint22_linear)"/></mask><g mask="url(#l)"><path d="M96.072 115c2.887 0 5.228-2.334 5.228-5.212 0-2.879-2.34-5.213-5.228-5.213s-5.229 2.334-5.229 5.213c0 2.878 2.341 5.212 5.229 5.212z" fill="url(#paint23_linear)"/></g><mask id="m" maskUnits="userSpaceOnUse" x="121" y="104" width="11" height="11"><path d="M126.353 115c2.887 0 5.228-2.334 5.228-5.212 0-2.879-2.341-5.213-5.228-5.213-2.888 0-5.229 2.334-5.229 5.213 0 2.878 2.341 5.212 5.229 5.212z" fill="url(#paint24_linear)"/></mask><g mask="url(#m)"><path d="M126.353 115c2.887 0 5.228-2.334 5.228-5.212 0-2.879-2.341-5.213-5.228-5.213-2.888 0-5.229 2.334-5.229 5.213 0 2.878 2.341 5.212 5.229 5.212z" fill="url(#paint25_linear)"/></g><defs><linearGradient id="paint0_linear" x1="133.609" y1="100.259" x2="62.208" y2="-81.544" gradientUnits="userSpaceOnUse"><stop/><stop offset="1" stop-color="#fff"/></linearGradient><linearGradient id="paint1_linear" x1="133.609" y1="100.259" x2="62.208" y2="-81.544" gradientUnits="userSpaceOnUse"><stop stop-color="#97C3F9"/><stop offset="1" stop-color="#93C1F9"/></linearGradient><linearGradient id="paint2_linear" x1="159.813" y1="89.968" x2="88.412" y2="-91.836" gradientUnits="userSpaceOnUse"><stop/><stop offset="1" stop-color="#fff"/></linearGradient><linearGradient id="paint3_linear" x1="159.813" y1="89.968" x2="88.412" y2="-91.836" gradientUnits="userSpaceOnUse"><stop stop-color="#97C3F9"/><stop offset="1" stop-color="#93C1F9"/></linearGradient><linearGradient id="paint4_linear" x1="124.667" y1="103.771" x2="53.266" y2="-78.032" gradientUnits="userSpaceOnUse"><stop/><stop offset="1" stop-color="#fff"/></linearGradient><linearGradient id="paint5_linear" x1="124.667" y1="103.771" x2="53.266" y2="-78.032" gradientUnits="userSpaceOnUse"><stop stop-color="#97C3F9"/><stop offset="1" stop-color="#93C1F9"/></linearGradient><linearGradient id="paint6_linear" x1="150.871" y1="93.479" x2="79.471" y2="-88.323" gradientUnits="userSpaceOnUse"><stop/><stop offset="1" stop-color="#fff"/></linearGradient><linearGradient id="paint7_linear" x1="150.871" y1="93.479" x2="79.471" y2="-88.323" gradientUnits="userSpaceOnUse"><stop stop-color="#97C3F9"/><stop offset="1" stop-color="#93C1F9"/></linearGradient><linearGradient id="paint8_linear" x1="115.724" y1="107.283" x2="44.323" y2="-74.52" gradientUnits="userSpaceOnUse"><stop/><stop offset="1" stop-color="#fff"/></linearGradient><linearGradient id="paint9_linear" x1="115.724" y1="107.283" x2="44.323" y2="-74.52" gradientUnits="userSpaceOnUse"><stop stop-color="#97C3F9"/><stop offset="1" stop-color="#93C1F9"/></linearGradient><linearGradient id="paint10_linear" x1="141.929" y1="96.992" x2="70.527" y2="-84.812" gradientUnits="userSpaceOnUse"><stop/><stop offset="1" stop-color="#fff"/></linearGradient><linearGradient id="paint11_linear" x1="141.929" y1="96.992" x2="70.527" y2="-84.812" gradientUnits="userSpaceOnUse"><stop stop-color="#97C3F9"/><stop offset="1" stop-color="#93C1F9"/></linearGradient><linearGradient id="paint12_linear" x1="28.169" y1="141.67" x2="-43.233" y2="-40.134" gradientUnits="userSpaceOnUse"><stop/><stop offset="1" stop-color="#fff"/></linearGradient><linearGradient id="paint13_linear" x1="28.169" y1="141.67" x2="-43.233" y2="-40.134" gradientUnits="userSpaceOnUse"><stop stop-color="#97C3F9"/><stop offset="1" stop-color="#93C1F9"/></linearGradient><linearGradient id="paint14_linear" x1="54.373" y1="131.378" x2="-17.028" y2="-50.425" gradientUnits="userSpaceOnUse"><stop/><stop offset="1" stop-color="#fff"/></linearGradient><linearGradient id="paint15_linear" x1="54.373" y1="131.378" x2="-17.028" y2="-50.425" gradientUnits="userSpaceOnUse"><stop stop-color="#97C3F9"/><stop offset="1" stop-color="#93C1F9"/></linearGradient><linearGradient id="paint16_linear" x1="80.578" y1="121.087" x2="9.176" y2="-60.717" gradientUnits="userSpaceOnUse"><stop/><stop offset="1" stop-color="#fff"/></linearGradient><linearGradient id="paint17_linear" x1="80.578" y1="121.087" x2="9.176" y2="-60.717" gradientUnits="userSpaceOnUse"><stop stop-color="#97C3F9"/><stop offset="1" stop-color="#93C1F9"/></linearGradient><linearGradient id="paint18_linear" x1="106.782" y1="110.795" x2="35.38" y2="-71.008" gradientUnits="userSpaceOnUse"><stop/><stop offset="1" stop-color="#fff"/></linearGradient><linearGradient id="paint19_linear" x1="106.782" y1="110.795" x2="35.38" y2="-71.008" gradientUnits="userSpaceOnUse"><stop stop-color="#97C3F9"/><stop offset="1" stop-color="#93C1F9"/></linearGradient><linearGradient id="paint20_linear" x1="132.986" y1="100.504" x2="61.585" y2="-81.3" gradientUnits="userSpaceOnUse"><stop/><stop offset="1" stop-color="#fff"/></linearGradient><linearGradient id="paint21_linear" x1="132.986" y1="100.504" x2="61.585" y2="-81.3" gradientUnits="userSpaceOnUse"><stop stop-color="#97C3F9"/><stop offset="1" stop-color="#93C1F9"/></linearGradient><linearGradient id="paint22_linear" x1="97.84" y1="114.307" x2="26.438" y2="-67.496" gradientUnits="userSpaceOnUse"><stop/><stop offset="1" stop-color="#fff"/></linearGradient><linearGradient id="paint23_linear" x1="97.84" y1="114.307" x2="26.438" y2="-67.496" gradientUnits="userSpaceOnUse"><stop stop-color="#97C3F9"/><stop offset="1" stop-color="#93C1F9"/></linearGradient><linearGradient id="paint24_linear" x1="124.044" y1="104.016" x2="52.642" y2="-77.788" gradientUnits="userSpaceOnUse"><stop/><stop offset="1" stop-color="#fff"/></linearGradient><linearGradient id="paint25_linear" x1="124.044" y1="104.016" x2="52.642" y2="-77.788" gradientUnits="userSpaceOnUse"><stop stop-color="#97C3F9"/><stop offset="1" stop-color="#93C1F9"/></linearGradient></defs></svg>
